packages/ffe-icons/icons/filled/lg/movie.svg

<svg xmlns="http://www.w3.org/2000/svg" height="40" viewBox="0 -960 960 960" width="40"><path d="m162.565-779.999 51.615 104.717q7.41 14.41 20.948 22.949 13.539 8.538 29.359 8.538 31.077 0 47.487-26.449 16.411-26.448 2.667-54.525l-27.204-55.23h84.461l51.615 104.717q7.41 14.41 20.949 22.949 13.538 8.538 29.359 8.538 31.077 0 47.487-26.449 16.41-26.448 2.41-54.525l-26.948-55.23h84.205l51.615 104.717q7.41 14.41 20.949 22.949 13.538 8.538 29.615 8.538 31.077 0 47.487-26.449 16.411-26.448 2.411-54.525l-27.205-55.23h91.588q25.846 0 44.205 18.359 18.359 18.359 18.359 44.205v474.87q0 25.846-18.359 44.205-18.359 18.359-44.205 18.359h-634.87q-25.846 0-44.205-18.359-18.359-18.359-18.359-44.205v-474.87q0-25.846 18.359-44.205 18.359-18.359 44.205-18.359Z"/></svg>

<svg xmlns="http://www.w3.org/2000/svg" viewBox="0 -960 960 960" width="32" height="32"><path d="m162.57-780 51.61 104.72q7.41 14.41 20.95 22.95t29.36 8.54q31.07 0 47.48-26.45 16.41-26.45 2.67-54.53L287.44-780h84.46l51.61 104.72q7.41 14.41 20.95 22.95t29.36 8.54q31.08 0 47.49-26.45 16.41-26.45 2.41-54.53L496.77-780h84.21l51.61 104.72q7.41 14.41 20.95 22.95t29.61 8.54q31.08 0 47.49-26.45 16.41-26.45 2.41-54.53L705.85-780h91.58q25.85 0 44.21 18.36T860-717.43v474.86q0 25.85-18.36 44.21T797.43-180H162.57q-25.85 0-44.21-18.36T100-242.57v-474.86q0-25.85 18.36-44.21T162.57-780Z"/></svg>
